src/assets/MoonpayLogo.svg

<svg width="88" height="16" viewBox="0 0 88 16" fill="none" xmlns="http://www.w3.org/2000/svg">
<g clip-path="url(#clip0_618_19598)">
<path d="M81.9258 13.146L78.6373 5.58332H80.8393L83.0851 11.0071L85.6807 5.58332H87.8463L82.7278 16.0002H80.5259L81.9258 13.146ZM73.9184 11.5801C74.1127 11.5358 74.3003 11.4659 74.4762 11.3721C74.6462 11.2815 74.8042 11.1699 74.9465 11.0399C75.0886 10.9097 75.2113 10.7597 75.311 10.5947C75.4155 10.4213 75.4964 10.2347 75.5517 10.0399C75.6114 9.82731 75.6409 9.60735 75.6391 9.38653C75.6412 9.16329 75.6117 8.94089 75.5517 8.72589C75.4964 8.53108 75.4155 8.34451 75.311 8.17111C75.2107 8.00537 75.0881 7.8543 74.9465 7.72217C74.8059 7.59108 74.6476 7.48049 74.4762 7.39367C74.299 7.30443 74.1117 7.23702 73.9184 7.19293C73.7151 7.14628 73.5072 7.12301 73.2986 7.12358C73.0913 7.12287 72.8845 7.14614 72.6825 7.19293C72.4915 7.23704 72.3066 7.30446 72.132 7.39367C71.9613 7.48166 71.8031 7.59214 71.6617 7.72217C71.5183 7.85357 71.3944 8.00473 71.2935 8.17111C71.1892 8.34415 71.1095 8.53086 71.0565 8.72589C70.9989 8.94131 70.9707 9.16354 70.9727 9.38653C70.971 9.6071 70.9992 9.82689 71.0565 10.0399C71.1094 10.2349 71.1892 10.4216 71.2935 10.5947C71.3937 10.7604 71.5178 10.9104 71.6617 11.0399C71.8049 11.1688 71.9627 11.2803 72.132 11.3721C72.3054 11.4658 72.4905 11.5358 72.6825 11.5801C72.8845 11.627 73.0913 11.6503 73.2986 11.6495C73.5072 11.6502 73.7151 11.6269 73.9184 11.5801ZM71.6982 13.2737C71.3606 13.1877 71.0358 13.0576 70.7321 12.8868C70.1405 12.5538 69.6523 12.0637 69.3212 11.4707C69.1506 11.164 69.0207 10.8364 68.9348 10.4961C68.7549 9.7649 68.7549 9.00091 68.9348 8.26968C69.0203 7.93042 69.1502 7.60396 69.3212 7.2988C69.6539 6.70783 70.1418 6.21933 70.7321 5.88628C71.0358 5.7155 71.3606 5.58543 71.6982 5.49939C72.0592 5.40772 72.4304 5.36234 72.8028 5.36434C73.0039 5.36389 73.2048 5.37608 73.4043 5.40084C73.5879 5.42358 73.7695 5.46019 73.9475 5.51033C74.1126 5.55723 74.2745 5.61453 74.4324 5.68188C74.5802 5.74482 74.7228 5.81926 74.8589 5.90453C74.987 5.98479 75.1067 6.07772 75.2162 6.18192C75.3187 6.27929 75.4137 6.38422 75.5006 6.49581V5.58332H77.5932V13.1898H75.5006V12.2773C75.3667 12.4453 75.2138 12.5972 75.0449 12.7299C74.8581 12.8767 74.6535 12.9993 74.436 13.0949C74.1942 13.2012 73.941 13.2796 73.6814 13.3285C73.3918 13.3833 73.0975 13.4102 72.8028 13.4088C72.4303 13.4108 72.0592 13.3654 71.6982 13.2737ZM64.1012 7.51048C64.4009 7.51598 64.7 7.48161 64.9907 7.40828C65.2173 7.35098 65.4287 7.24513 65.6105 7.09804C65.7745 6.96106 65.9002 6.7837 65.975 6.5834C66.0566 6.35644 66.0962 6.11648 66.0917 5.87531C66.0964 5.63532 66.0568 5.39652 65.975 5.17088C65.8999 4.97274 65.7742 4.7978 65.6105 4.66354C65.4279 4.51864 65.2166 4.41414 64.9907 4.35695C64.7 4.2837 64.4009 4.24934 64.1012 4.25475H62.045V7.51048L64.1012 7.51048ZM59.8795 2.45898H64.3053C65.0005 2.45898 65.6032 2.54415 66.1136 2.71448C66.6239 2.88481 67.0444 3.12084 67.375 3.42257C67.7038 3.72173 67.9573 4.09441 68.115 4.51024C68.2806 4.94862 68.3634 5.41396 68.3593 5.88261C68.3645 6.35017 68.2817 6.81452 68.115 7.25134C67.9548 7.66372 67.7015 8.03345 67.375 8.33171C67.0444 8.63594 66.6239 8.87319 66.1136 9.04344C65.6032 9.2139 65.0004 9.29906 64.3053 9.29894H62.045V13.1898H59.8795V2.45898ZM50.5806 5.58332H52.6586V6.4958C52.7869 6.31869 52.939 6.16024 53.1107 6.02496C53.2924 5.88223 53.4907 5.76212 53.7013 5.66727C53.9333 5.56338 54.1769 5.48742 54.4268 5.44097C54.7044 5.3887 54.9864 5.36304 55.2689 5.36432C55.7089 5.35802 56.1462 5.43223 56.5595 5.58332C56.9277 5.71912 57.2613 5.93475 57.5365 6.21476C57.813 6.50494 58.0222 6.85266 58.149 7.23309C58.2953 7.67054 58.3668 8.12958 58.3604 8.59086V13.1898H56.2824V9.13104C56.2874 8.83434 56.2456 8.53871 56.1585 8.25506C56.0864 8.02089 55.9659 7.80451 55.8048 7.61998C55.65 7.44856 55.4562 7.31709 55.2398 7.23673C54.9945 7.1479 54.735 7.10461 54.4742 7.10899C54.2122 7.10484 53.9516 7.14811 53.7049 7.23673C53.4871 7.31641 53.2919 7.44794 53.1362 7.61998C52.9752 7.8045 52.8547 8.02088 52.7826 8.25506C52.6955 8.53871 52.6536 8.83434 52.6586 9.13104V13.1898H50.5806V5.58332ZM45.4671 11.5582C45.6654 11.5102 45.8575 11.4392 46.0394 11.3465C46.2125 11.2579 46.3711 11.1435 46.5097 11.0071C46.647 10.8725 46.7659 10.7203 46.8633 10.5545C46.9627 10.3837 47.0364 10.1993 47.0821 10.007C47.1317 9.79899 47.1562 9.58577 47.155 9.37192C47.1563 9.15926 47.1318 8.94724 47.0821 8.74048C46.9901 8.35942 46.7916 8.01251 46.5097 7.74041C46.3692 7.60519 46.211 7.48977 46.0394 7.39731C45.859 7.30042 45.6665 7.228 45.4671 7.18197C45.2507 7.13222 45.0292 7.10772 44.8072 7.10897C44.5876 7.10798 44.3686 7.13248 44.1546 7.18197C43.9562 7.22757 43.7648 7.30001 43.5859 7.39731C43.4158 7.4904 43.2589 7.60578 43.1193 7.74041C42.9817 7.87297 42.865 8.02555 42.7729 8.193C42.6789 8.36502 42.6054 8.54757 42.5542 8.73685C42.4991 8.94399 42.4721 9.1576 42.474 9.37194C42.4727 9.58624 42.4997 9.79978 42.5542 10.007C42.6041 10.1979 42.6776 10.3818 42.7729 10.5545C42.8661 10.7212 42.9828 10.8736 43.1193 11.0071C43.257 11.1429 43.4143 11.2573 43.5859 11.3465C43.7663 11.4396 43.9573 11.5107 44.1546 11.5583C44.3682 11.6102 44.5874 11.6359 44.8072 11.6349C45.0294 11.6362 45.251 11.6105 45.4671 11.5583M43.5822 13.27C43.2073 13.1827 42.8439 13.0516 42.4995 12.8795C42.1755 12.7178 41.875 12.5128 41.6063 12.27C41.3459 12.0341 41.12 11.7625 40.9355 11.4634C40.7484 11.1588 40.6049 10.8296 40.5089 10.4852C40.3097 9.75643 40.3097 8.98746 40.5089 8.25872C40.6045 7.91534 40.7481 7.58724 40.9355 7.28419C41.1213 6.98598 41.347 6.7146 41.6063 6.47757C41.8743 6.23286 42.1749 6.0265 42.4995 5.86438C42.8439 5.69235 43.2073 5.56127 43.5822 5.47384C44.3933 5.28891 45.2356 5.28891 46.0467 5.47384C46.4195 5.56049 46.7806 5.69161 47.1222 5.86438C47.4453 6.02891 47.7456 6.23505 48.0154 6.47757C48.2786 6.71374 48.508 6.98517 48.6971 7.28419C48.8866 7.58659 49.0315 7.91483 49.1273 8.25872C49.3266 8.98746 49.3266 9.75643 49.1273 10.4852C49.0311 10.8301 48.8863 11.1594 48.6971 11.4634C48.5094 11.7633 48.2798 12.035 48.0154 12.27C47.7449 12.5106 47.4447 12.7154 47.1222 12.8795C46.7817 13.052 46.4219 13.1831 46.0503 13.27C45.238 13.455 44.3946 13.455 43.5822 13.27ZM35.4735 11.5582C35.6719 11.5103 35.864 11.4392 36.0458 11.3465C36.2189 11.2579 36.3775 11.1435 36.5161 11.0071C36.6534 10.8725 36.7723 10.7203 36.8698 10.5545C36.9692 10.3838 37.0429 10.1993 37.0885 10.007C37.1381 9.79899 37.1626 9.58577 37.1614 9.37192C37.1627 9.15927 37.1382 8.94724 37.0885 8.74048C36.9966 8.35942 36.798 8.0125 36.5161 7.74041C36.3757 7.60519 36.2174 7.48977 36.0458 7.39731C35.8655 7.3004 35.673 7.22798 35.4735 7.18197C35.2571 7.13222 35.0356 7.10772 34.8136 7.10897C34.594 7.10799 34.375 7.13248 34.161 7.18197C33.9626 7.22757 33.7712 7.30001 33.5923 7.39731C33.4222 7.49043 33.2653 7.60581 33.1257 7.74041C32.9881 7.87297 32.8714 8.02555 32.7793 8.193C32.6854 8.36505 32.6119 8.54759 32.5606 8.73684C32.5055 8.94397 32.4785 9.15758 32.4804 9.37192C32.4791 9.58623 32.5061 9.79976 32.5606 10.007C32.6106 10.1979 32.684 10.3818 32.7793 10.5545C32.8725 10.7212 32.9892 10.8736 33.1257 11.0071C33.2635 11.1429 33.4208 11.2573 33.5923 11.3465C33.7728 11.4396 33.9637 11.5107 34.161 11.5582C34.3747 11.6102 34.5938 11.6359 34.8136 11.6349C35.0359 11.6362 35.2574 11.6105 35.4735 11.5582ZM33.5887 13.27C33.2137 13.1827 32.8503 13.0516 32.5059 12.8795C32.182 12.7178 31.8815 12.5128 31.6127 12.27C31.3523 12.0341 31.1265 11.7625 30.9419 11.4634C30.7549 11.1588 30.6113 10.8296 30.5154 10.4852C30.3161 9.75647 30.3161 8.98749 30.5154 8.25876C30.6109 7.91538 30.7545 7.58727 30.9419 7.28423C31.1278 6.98604 31.3535 6.71466 31.6127 6.47761C31.8808 6.23291 32.1813 6.02655 32.5059 5.86442C32.8504 5.69238 33.2138 5.56131 33.5887 5.47388C34.3998 5.28895 35.242 5.28895 36.0531 5.47388C36.4259 5.56051 36.787 5.69163 37.1286 5.86442C37.4518 6.02892 37.7521 6.23507 38.0218 6.47761C38.2851 6.71375 38.5145 6.98519 38.7035 7.28423C38.8931 7.58661 39.038 7.91485 39.1337 8.25876C39.333 8.9875 39.333 9.75647 39.1337 10.4852C39.0376 10.8301 38.8927 11.1595 38.7035 11.4634C38.5158 11.7634 38.2863 12.035 38.0218 12.27C37.7513 12.5106 37.4512 12.7155 37.1286 12.8795C36.7881 13.052 36.4283 13.1831 36.0568 13.27C35.2444 13.455 34.401 13.455 33.5887 13.27ZM17.1875 2.45898H19.3749L23.1153 8.18205L26.8704 2.45898H29.0578V13.1898H26.8922V5.83151L23.7861 10.5764H22.4591L19.353 5.83151V13.1898H17.1875V2.45898Z" fill="black"/>
<path d="M12.1927 4.37991C12.6253 4.37991 13.0482 4.25147 13.4079 4.01084C13.7676 3.7702 14.048 3.42818 14.2136 3.02801C14.3791 2.62785 14.4224 2.18753 14.338 1.76272C14.2536 1.33791 14.0453 0.947694 13.7394 0.641424C13.4335 0.335153 13.0437 0.12658 12.6194 0.0420803C12.1951 -0.0424195 11.7553 0.000948871 11.3556 0.166701C10.9559 0.332454 10.6143 0.613146 10.3739 0.973282C10.1336 1.33342 10.0053 1.75682 10.0053 2.18995C10.0053 2.47755 10.0618 2.76233 10.1718 3.02804C10.2817 3.29374 10.4428 3.53517 10.6459 3.73853C10.849 3.94189 11.0902 4.1032 11.3556 4.21324C11.621 4.32329 11.9054 4.37993 12.1927 4.37991ZM5.48559 14.2429C4.43106 14.2429 3.40022 13.9298 2.52341 13.3433C1.6466 12.7567 0.963217 11.9231 0.559668 10.9477C0.156118 9.97226 0.0505317 8.89896 0.25626 7.86349C0.461989 6.82801 0.969793 5.87687 1.71546 5.13034C2.46112 4.3838 3.41115 3.87541 4.44542 3.66944C5.47968 3.46347 6.55172 3.56919 7.52598 3.97321C8.50023 4.37723 9.33294 5.06142 9.9188 5.93926C10.5047 6.81709 10.8174 7.84915 10.8174 8.90491C10.8174 9.60591 10.6795 10.3 10.4115 10.9477C10.1436 11.5953 9.75086 12.1838 9.25576 12.6795C8.76066 13.1752 8.17288 13.5684 7.52599 13.8366C6.8791 14.1049 6.18577 14.2429 5.48559 14.2429Z" fill="#7D00FF"/>
</g>
<defs>
<clipPath id="clip0_618_19598">
<rect width="87.6923" height="16" fill="white" transform="translate(0.153809)"/>
</clipPath>
</defs>
</svg>

<svg xmlns="http://www.w3.org/2000/svg" width="88" height="16" fill="none"><g clip-path="url(#a)"><path fill="#000" d="m81.926 13.146-3.289-7.563h2.202l2.246 5.424 2.596-5.424h2.165L82.728 16h-2.202zm-8.008-1.566a2.247 2.247 0 0 0 1.028-.54c.143-.13.265-.28.365-.445a2.282 2.282 0 0 0 .328-1.208 2.282 2.282 0 0 0-.328-1.215 2.044 2.044 0 0 0-.835-.777 2.453 2.453 0 0 0-.558-.202 2.738 2.738 0 0 0-.62-.07 2.69 2.69 0 0 0-.615.07 2.394 2.394 0 0 0-.551.2 2.15 2.15 0 0 0-.47.33 2.052 2.052 0 0 0-.369.448c-.104.173-.184.36-.237.555a2.472 2.472 0 0 0-.083.66c-.002.221.026.44.084.654.052.195.132.382.236.555.1.165.225.315.369.445.143.129.3.24.47.332.173.094.358.164.55.208.203.047.41.07.617.07.208 0 .416-.023.62-.07m-2.22 1.694a3.97 3.97 0 0 1-.966-.387 3.688 3.688 0 0 1-1.41-1.416c-.171-.307-.301-.635-.387-.975a4.66 4.66 0 0 1 0-2.226c.085-.34.215-.666.386-.971.333-.591.82-1.08 1.411-1.413.304-.17.629-.3.966-.387a4.392 4.392 0 0 1 1.105-.135c.2 0 .402.012.601.037a3.665 3.665 0 0 1 1.028.28c.148.064.29.138.427.224.128.08.248.173.357.277.103.097.198.202.285.314v-.913h2.092v7.607h-2.092v-.913a2.775 2.775 0 0 1-1.065.818 3.472 3.472 0 0 1-.755.233c-.29.055-.584.082-.878.08a4.39 4.39 0 0 1-1.105-.134M64.101 7.51c.3.006.599-.028.89-.102.226-.057.438-.163.62-.31.163-.137.29-.314.364-.515.082-.227.121-.467.117-.708a1.955 1.955 0 0 0-.117-.704 1.211 1.211 0 0 0-.364-.507 1.648 1.648 0 0 0-.62-.307 3.39 3.39 0 0 0-.89-.102h-2.056V7.51zM59.88 2.46h4.425c.695 0 1.298.085 1.809.255.51.17.93.407 1.261.709.329.299.582.671.74 1.087.166.439.248.904.244 1.373.006.467-.077.932-.244 1.368-.16.413-.413.782-.74 1.08-.33.305-.751.542-1.261.712-.51.17-1.114.256-1.809.256h-2.26v3.89h-2.166zm-9.3 3.124h2.079v.913c.128-.177.28-.336.452-.471.181-.143.38-.263.59-.358.232-.104.476-.18.726-.226.277-.052.56-.078.842-.077.44-.006.877.068 1.29.22.369.135.702.35.977.63.277.29.486.639.613 1.02.146.437.218.896.211 1.357v4.599h-2.078V9.13a2.822 2.822 0 0 0-.123-.876 1.748 1.748 0 0 0-.354-.635 1.434 1.434 0 0 0-.565-.383 2.143 2.143 0 0 0-.766-.128 2.174 2.174 0 0 0-.77.128 1.43 1.43 0 0 0-.568.383c-.16.184-.281.4-.353.635-.087.284-.13.58-.124.876v4.059H50.58zm-5.113 5.975c.198-.048.39-.119.572-.211.173-.09.332-.203.47-.34a2.18 2.18 0 0 0 .354-.452c.1-.171.173-.356.22-.548.049-.208.073-.421.072-.635a2.633 2.633 0 0 0-.073-.632 2.063 2.063 0 0 0-1.043-1.343 2.306 2.306 0 0 0-.572-.215 2.873 2.873 0 0 0-.66-.073 2.84 2.84 0 0 0-.652.073 2.18 2.18 0 0 0-1.035.558 1.9 1.9 0 0 0-.347.453 2.388 2.388 0 0 0-.299 1.179 2.439 2.439 0 0 0 .299 1.183 1.995 1.995 0 0 0 .813.792c.18.093.371.164.569.211.213.052.432.078.652.077.222.001.444-.024.66-.077m-1.885 1.712a4.917 4.917 0 0 1-1.083-.39 3.99 3.99 0 0 1-.893-.61 3.733 3.733 0 0 1-1.097-1.785c-.2-.729-.2-1.498 0-2.226a3.781 3.781 0 0 1 1.097-1.781c.268-.245.569-.451.893-.614a4.927 4.927 0 0 1 1.083-.39 5.543 5.543 0 0 1 2.465 0c.373.086.734.218 1.075.39.323.165.624.371.893.614a3.71 3.71 0 0 1 1.112 1.781c.2.728.2 1.497 0 2.226a3.72 3.72 0 0 1-1.112 1.785c-.27.24-.57.445-.893.61-.34.172-.7.303-1.072.39a5.557 5.557 0 0 1-2.468 0m-8.108-1.712c.198-.048.39-.119.572-.211.173-.09.331-.203.47-.34.137-.134.256-.287.354-.452.1-.171.173-.356.219-.548.05-.208.074-.421.072-.635a2.633 2.633 0 0 0-.072-.632 2.062 2.062 0 0 0-1.043-1.343 2.301 2.301 0 0 0-.572-.215 2.873 2.873 0 0 0-.66-.073 2.84 2.84 0 0 0-.653.073 2.181 2.181 0 0 0-1.035.558 1.9 1.9 0 0 0-.347.453 2.388 2.388 0 0 0-.299 1.179 2.439 2.439 0 0 0 .3 1.183 1.995 1.995 0 0 0 .812.792c.18.093.372.164.569.211.214.052.433.078.653.077.222.001.443-.024.66-.077m-1.885 1.712a4.916 4.916 0 0 1-1.083-.39 3.994 3.994 0 0 1-.893-.61 3.736 3.736 0 0 1-1.098-1.785 4.22 4.22 0 0 1 0-2.226 3.777 3.777 0 0 1 1.098-1.781 3.93 3.93 0 0 1 .893-.614 4.93 4.93 0 0 1 1.083-.39 5.543 5.543 0 0 1 2.464 0 4.78 4.78 0 0 1 1.076.39c.323.165.623.371.893.614a3.703 3.703 0 0 1 1.112 1.781c.199.729.199 1.497 0 2.226a3.714 3.714 0 0 1-1.112 1.785c-.27.24-.57.446-.893.61-.34.172-.7.303-1.072.39a5.557 5.557 0 0 1-2.468 0M17.188 2.459h2.187l3.74 5.723L26.87 2.46h2.188v10.73h-2.166V5.833l-3.106 4.744H22.46l-3.106-4.744v7.358h-2.166z"/><path fill="#7D00FF" d="M12.193 4.38a2.185 2.185 0 0 0 2.02-1.352A2.193 2.193 0 0 0 12.62.042a2.185 2.185 0 0 0-2.614 2.148 2.191 2.191 0 0 0 2.188 2.19m-6.707 9.863A5.328 5.328 0 0 1 .56 10.948 5.344 5.344 0 0 1 1.715 5.13a5.33 5.33 0 0 1 9.102 3.775 5.343 5.343 0 0 1-3.291 4.932 5.326 5.326 0 0 1-2.04.406"/></g><defs><clipPath id="a"><path fill="#fff" d="M.154 0h87.692v16H.154z"/></clipPath></defs></svg>
